X: 1
T:James Louders March
R:March
O:England
M:C|
A:Westmorland
N:P22 1/2
K:G
GB|d3e (3dec (3BcA|G2G>G G>B A>c|\
B>GB>d e>dc>B|d>ed>c A2G>B|\
d3e (3dec (3BcA|G2 G>G G>BA>c|\
(3Bcd (3edc B2A2|G2G>GG2::\
d>B|A3B d>cB>A|B2d2 e>dc>B|\
B>dc>e e>dc>B|e2c2A2D>D|\
G4 AGcB|B4c>Be>d|\
(3def (3gfe (3dec (3BcA|G2G>GG2:|
